X:1
T:Hand in Hand
T:Hand in Hand
T:William Howard Doane
T:Frances Jane (Fanny) Crosby, 1868
T:Public Domain Courtesy of the Cyber Hymnal™
C:William Howard Doane
Z:Public Domain
Z:Courtesy of the Cyber Hymnal™
%%score ( 1 2 ) ( 3 4 )
L:1/8
Q:1/4=110
M:4/4
K:D
V:1 treble 
V:2 treble 
V:3 bass 
V:4 bass 
V:1
 !fermata![FA]>[DF] | [A,D]2 [A,D]2 [CE]2 [CE]2 | ([DF]2 A2 !fermata!d2) ([Ac][GB]) | %3
w: 1.~Now be-|gin the heaven- ly|race— * * The *|
w: 2.~He who|left His Fa- ther’s|throne, * * To *|
w: 3.~They who|on His name be-|lieve, * * And *|
w: 4.~Now be-|gin the heaven- ly|race, * * No *|
 [FA]2 [FA]2 [FA]2 [DF]2 | [CE]4 [DA]>[DF] | [A,D]2 [A,D]2 [CE]2 [CE]2 | %6
w: Sav- ior calls to-|day; Let us|ear- ly seek His|
w: suf- fer, bleed and|die, He Who|made our grief His|
w: pa- tient- ly en-|dure, Life e-|tern- al shall re-|
w: more, no more de-|lay; To the|heal- ing fount of|
 ([DF]2 A2 !fermata!d2) (cB) | [FA]2 [DF]2 ([CE]D) [CE]2 | D6 ||"^Refrain" [FA]2 [FA]2 [FA]2 (FA) | %10
w: face, * * And *|ear- ly learn * to|pray.||
w: own, * * Will *|ev- ery want * sup-|ply.|Hand in hand we’ll *|
w: ceive, * * And *|find His mer- * cy|sure.||
w: grace, * * Re- *|joic- ing, haste * a-|way.||
 [Fd]2 [Fd]2 [Fd]4 | [Fd]2 [Fd]2 [Fd]2 ([Ac][GB]) | [FA]2 [FA]2 [FA]4 | [EA]2 [GA]2 [FA]2 [EG]2 | %14
w: ||||
w: jour- ney on,|Reach- ing for- ward *|to the prize,|Hop- ing, trust- ing|
w: ||||
w: ||||
 [DF]2 [FA]2 !fermata![Fd]2 ([Ac][GB]) | [FA]3 [DF] [EG]2 [CE]2 | D6 |] %17
w: |||
w: in the Lord, Where *|all our vig- or|lies.|
w: |||
w: |||
V:2
 x2 | x8 | x2 F4 x2 | x8 | x6 | x8 | x2 F4 G2 | x5 D x2 | D6 || x6 F2 | x8 | x8 | x8 | x8 | x8 | %15
 x8 | D6 |] %17
V:3
 [D,D]>[D,A,] | [D,F,]2 [D,F,]2 [A,,A,]2 [A,,A,]2 | (A,2 D2 !fermata!A,2) [G,D]2 | %3
 [D,D]2 [D,D]2 [D,D]2 [D,A,]2 | [A,,A,]4 [D,F,]>[D,A,] | [D,F,]2 [D,F,]2 [A,,A,]2 [A,,A,]2 | %6
 (A,2 D2 !fermata!A,2) [G,D]2 | [A,D]2 [A,D]2 [A,,A,]2 [A,,A,]2 | [D,F,]6 || %9
 [D,D]2 [D,D]2 [D,D]2 [D,D]2 | [D,A,]2 [D,A,]2 [D,A,]4 | [G,B,]2 [G,B,]2 [G,B,]2 [G,D]2 | %12
 [D,D]2 [D,D]2 [D,D]4 | [A,,C]2 [A,,E]2 [A,,D]2 [A,,A,]2 | [D,A,]2 [D,D]2 !fermata![D,A,]2 [G,D]2 | %15
 [A,D]3 A, A,2 [A,,A,]2 | [D,F,]6 |] %17
V:4
 x2 | x8 | D,6 x2 | x8 | x6 | x8 | D,4 x4 | x8 | x6 || x8 | x8 | x8 | x8 | x8 | x8 | x3 A, A,2 x2 | %16
 x6 |] %17

